Default.style/tram.svg

<svg width="26" height="36" xmlns="http://www.w3.org/2000/svg"><g fill="#888" fill-rule="evenodd"><path d="M22 7a3 3 0 0 1 3 3l1 13v8c0 1.656-1.344 3-3 3H3a3 3 0 0 1-3-3v-8l1-13a3 3 0 0 1 3-3h18ZM4 31a2 2 0 1 0-.001-4.001A2 2 0 0 0 4 31ZM20 9H6a1 1 0 1 0 0 2h14a1 1 0 1 0 0-2Zm3 4c0-1.104-.896-1-2-1H5c-1.104 0-2-.104-2 1l-1 8c0 1.104.896 3 2 3h18c1.104 0 2-1.896 2-3l-1-8Zm-1 14a2 2 0 1 0 .001 4.001A2 2 0 0 0 22 27ZM3 32a1 1 0 0 1 1 1v2a1 1 0 1 1-2 0v-2a1 1 0 0 1 1-1Zm20 0a1 1 0 0 1 1 1v2a1 1 0 1 1-2 0v-2a1 1 0 0 1 1-1ZM17.771 4H8.23C7 4 6 3.103 6 2s1-2 2.229-2h9.541C19 0 20 .897 20 2s-1 2-2.229 2ZM8.229 1C7.552 1 7 1.449 7 2c0 .551.552 1 1.229 1h9.541C18.448 3 19 2.551 19 2c0-.551-.552-1-1.229-1H8.229ZM9 4h1v3H9zM16 4h1v3h-1z"/></g></svg>

<?xml version="1.0" encoding="UTF-8" standalone="no"?>
<svg width="26px" height="36px" viewBox="0 0 26 36" version="1.1" xmlns="http://www.w3.org/2000/svg" xmlns:xlink="http://www.w3.org/1999/xlink" xmlns:sketch="http://www.bohemiancoding.com/sketch/ns">
    <!-- Generator: Sketch 3.2.2 (9983) - http://www.bohemiancoding.com/sketch -->
    <title>tram</title>
    <desc>Created with Sketch.</desc>
    <defs></defs>
    <g id="p" stroke="none" stroke-width="1" fill="none" fill-rule="evenodd" sketch:type="MSPage">
        <g id="tram" sketch:type="MSLayerGroup" fill="#888888">
            <g id="Group" sketch:type="MSShapeGroup">
                <path d="M22,7 C23.656,7 25,8.343 25,10 L26,23 L26,31 C26,32.656 24.656,34 23,34 L21.221,34 L19.07,34 L6.93,34 L4.78,34 L3,34 C1.343,34 0,32.656 0,31 L0,23 L1,10 C1,8.343 2.343,7 4,7 L22,7 Z M4,31 C5.104,31 6,30.104 6,29 C6,27.896 5.104,27 4,27 C2.896,27 2,27.896 2,29 C2,30.104 2.896,31 4,31 L4,31 Z M20,9 L6,9 C5.447,9 5,9.448 5,10 C5,10.552 5.447,11 6,11 L20,11 C20.553,11 21,10.552 21,10 C21,9.448 20.553,9 20,9 L20,9 Z M23,13 C23,11.896 22.104,12 21,12 L5,12 C3.896,12 3,11.896 3,13 L2,21 C2,22.104 2.896,24 4,24 L22,24 C23.104,24 24,22.104 24,21 L23,13 L23,13 Z M22,27 C20.896,27 20,27.896 20,29 C20,30.104 20.896,31 22,31 C23.104,31 24,30.104 24,29 C24,27.896 23.104,27 22,27 L22,27 Z M3,32 L3,32 C3.552,32 4,32.447 4,33 L4,35 C4,35.553 3.552,36 3,36 L3,36 C2.447,36 2,35.553 2,35 L2,33 C2,32.447 2.447,32 3,32 L3,32 Z M23,32 L23,32 C23.552,32 24,32.447 24,33 L24,35 C24,35.553 23.552,36 23,36 L23,36 C22.447,36 22,35.553 22,35 L22,33 C22,32.447 22.447,32 23,32 L23,32 Z" id="Shape"></path>
                <path d="M17.771,4 L8.23,4 C7,4 6,3.103 6,2 C6,0.897 7,0 8.229,0 L17.77,0 C19,0 20,0.897 20,2 C20,3.103 19,4 17.771,4 L17.771,4 Z M8.229,1 C7.552,1 7,1.449 7,2 C7,2.551 7.552,3 8.229,3 L17.77,3 C18.448,3 19,2.551 19,2 C19,1.449 18.448,1 17.771,1 L8.229,1 L8.229,1 Z" id="Shape"></path>
                <rect id="Rectangle-path" x="9" y="4" width="1" height="3"></rect>
                <rect id="Rectangle-path" x="16" y="4" width="1" height="3"></rect>
            </g>
        </g>
    </g>
</svg>
